resources/svg/tablet-o.svg

<svg xmlns="http://www.w3.org/2000/svg" viewBox="0 0 15 15" fill="none"><path d="M6 11.5H9M2.5 14.5H12.5C13.0523 14.5 13.5 14.0523 13.5 13.5V1.5C13.5 0.947715 13.0523 0.5 12.5 0.5H2.5C1.94772 0.5 1.5 0.947716 1.5 1.5V13.5C1.5 14.0523 1.94772 14.5 2.5 14.5Z" stroke="black"/></svg>

<svg xmlns="http://www.w3.org/2000/svg" viewBox="0 0 15 15" fill="none"><path d="M6 11.5h3m-6.5 3h10a1 1 0 001-1v-12a1 1 0 00-1-1h-10a1 1 0 00-1 1v12a1 1 0 001 1z" stroke="currentColor"/></svg>
